!!!COM:	Busnoys, Antoine
!!!CDT:	~1430///-1492/11/06
!!!OTL:	Ung que plus tous I
!!!AGN:	Song; Chanson
!!!SCT:	Bus3059
!!!SCA:	Bus3059
!!!voices:	3
**kern	**kern	**kern
*staff3	*staff2	*staff1
*Ivox	*Ivox	*Ivox
*I"Contra	*I"Tenor	*I"Superius
*I'C	*I'T	*I'S
*clefF4	*clefGv2	*clefG2
*k[b-]	*k[b-]	*k[b-]
*M2/1	*M2/1	*M2/1
*met(C)	*met(C)	*met(C)
=1-	=1-	=1-
1GG	0G	1.g
1C	.	.
.	.	4f
.	.	4e
=2	=2	=2
0BB-	1B-	1d
.	1B-	1d
=3	=3	=3
0FF	1.A	2c
.	.	1f
.	2G	4e
.	.	4d
=4	=4	=4
2GG	2.G	2e
1BB-	.	1d
.	4F	.
.	2G	.
2C	2E	4c
.	.	4B-
=5	=5	=5
1D	1F	1A
1BB-	1B-	1G
=6	=6	=6
2C	2A	1r
2.D	1A	.
.	.	1f
4C	.	.
4BB-	2G	.
4AA	.	.
=7	=7	=7
1GG	1.d	1b-
[1FF	.	2a
.	2c	[2a
=8	=8	=8
2FF]	2d	2a]
2GG	2B-	2g
2AA	2A	2.cc
[2C	2G	.
.	.	4b-
=9	=9	=9
4C]	2c	4a
4BB-	.	4g
2GG	2B-	1g
1D	1A	.
.	.	2f#i
=10	=10	=10
2GG	1G	0g
1BB-	.	.
.	1r	.
4AA	.	.
4GG	.	.
=11	=11	=11
1FF	1A	0r
1GG	1B-	.
=12	=12	=12
1AA	2A	1r
.	1c	.
1FF	.	1a
.	4B-	.
.	4A	.
=13	=13	=13
1GG	1G	1b-
1r	[1F	2a
.	.	[2cc
=14	=14	=14
1r	2F]	2cc]
.	1B-	4b-
.	.	4a
1E	.	1g
.	2c	.
=15	=15	=15
1.D	2.d	2.f
.	4e	4g
.	2f	2a
2G	[2d	[2b-
=16	=16	=16
2E	2d]	2b-]
2F	2c	1a
1G	1B-	.
.	.	2g
=17	=17	=17
2D	2.A	2.a
4C	.	.
4BB-	4B-	4g
2AA	2c	2a
2GG	[2d	[2b-
=18	=18	=18
2BB-	2d]	2b-]
2C	4c	4a
.	4B-	4g
1DN	1AN	1fN
=19	=19	=19
0r	0r	0r
=20	=20	=20
0E-	0G	0b-
=21	=21	=21
0F	1c	1a
.	1d	1a
=22	=22	=22
0C	0e	1.g
.	.	2f
=23	=23	=23
0D	2d	1f
.	2e	.
.	1f	2d
.	.	2e
=24	=24	=24
1r	2B-	1f
.	2c	.
1GG	2d	1B-
.	4c	.
.	4B-	.
=25	=25	=25
1.D	2.A	2.f
.	4G	4e
.	2A	2f
2BB-	2B-	2g
=26	=26	=26
2C	2G	2e
1D	1F	2.f
.	.	4d
2C	2G	2e
=27	=27	=27
2D	2F	2f
2BB-	1B-	4e
.	.	4d
1F	.	1c
.	2A	.
=28	=28	=28
1BB-	0B-	1B-
2GG	.	1r
[2BB-	.	.
=29	=29	=29
2BB-]	0r	1b-
4AA	.	.
4GG	.	.
2.FF#i	.	1a
4EE	.	.
=30	=30	=30
2GG	1B-	2g
2BB-	.	1g
2C	1A	.
2D	.	2f
=31	=31	=31
4BB-	2G	2g
2GG	.	.
.	1G	4f
4AA	.	4e
4BB-	.	2d
4C	.	.
2AA	2F	2a
=32	=32	=32
1GG	2G	2b-
.	4F	4a
.	4E	4g
1r	2D	2.f#i
.	2A	.
.	.	4e
=33	=33	=33
1GG	2B-	2g
.	4A	2.dd
.	4G	.
1AA	2.F#i	.
.	.	4cc
.	.	4b-
.	4E	4a
=34	=34	=34
1GG	2G	2b-
.	2.d	4a
.	.	4g
1r	.	1f
.	4c	.
.	4B-	.
.	4A	.
=35	=35	=35
1r	2B-	1g
.	4A	.
.	4G	.
1D	1F	1a
=36	=36	=36
1E-i	1G	2g
.	.	1g
1D	1A	.
.	.	2f#i
=37	=37	=37
1r	[0Gl	[0gl
1GG	.	.
=38	=38	=38
0GGl	0G]	0g]
==	==	==
*-	*-	*-
!!!RDF**kern: l=long note in original notation
!!!RDF**kern: i=editorial accidental
!!!RDF**kern: N=signum congruentiae
!!!ENC:	Chris Gage 04-22-2015
!!!END:	2016/02/08/
!!!EED:	Jesse Rodin
!!!EEV:	2016/02/08/
!!!ONB:	Translated from MusicXML and edited on 2016/02/08/ by Craig Sapp
!!muse2ps: C^@{COM}^i2I150v95,95,150Q16
